!!!!SEGMENT: pl-wtm--r-996-1--005_krogulski-jozef-nieszpory-laudate-dominum.krn
!!!id: 18xx:2096
!!!COM: Krogulski, Józef Władysław
!!!OTL: Nieszpory – Laudate Dominum
!!!PDT: 1836
!!!SMS-siglum: PL-Wtm
!!!SMS-shelfmark: R 996/1
!!!NIFC-rismID: 1001086252
!!!URL-scan: http://repozytorium.nifc.pl/skany/pl-wtm-nut--r996
!!!ONB-nifc: UWAGA: części Nieszporów: 1. Dixit Dominus, 2. Confitebor tibi, 3. Beatus vir, 4. Laudate pueri, 5. Laudate Dominum, 6. Magnificat, 7. Salve Regina. Folder pl-wtm-r996-1
!!!SMS-variant:
!!!SMS-altvar:
!!!OMD: Allegretto.
**kern	**kern	**dynam	**kern	**text	**dynam	**kern	**text	**dynam	**kern	**text	**dynam	**kern	**text	**dynam
*part5	*part5	*part5	*part4	*part4	*part4	*part3	*part3	*part3	*part2	*part2	*part2	*part1	*part1	*part1
*staff6	*staff5	*	*staff4	*staff4	*	*staff3	*staff3	*	*staff2	*staff2	*	*staff1	*staff1	*
*	*I"Organo.	*	*I"Basſi.	*	*	*I"Tenori	*	*	*I"Soprano 2do vel Alto.	*	*	*I"Soprano 1o	*	*
*clefF4	*clefG2	*	*clefF4	*	*	*clefG2	*	*	*clefG2	*	*	*clefG2	*	*
*	*	*	*	*	*	*ITrd8c12	*	*	*	*	*	*	*	*
*k[b-]	*k[b-]	*	*k[b-]	*	*	*k[b-]	*	*	*k[b-]	*	*	*k[b-]	*	*
*F:	*F:	*	*F:	*	*	*F:	*	*	*F:	*	*	*F:	*	*
*M3/4	*M3/4	*	*M3/4	*	*	*M3/4	*	*	*M3/4	*	*	*M3/4	*	*
*	*	*	*	*ij	*	*	*	*	*	*ij	*	*	*	*
!	!	!LO:DY:rj	!	!	!LO:DY:rj:b	!	!	!LO:DY:rj:b	!	!	!LO:DY:rj:b	!LO:TX:a:i:t=Psalmus 116.	!	!LO:DY:rj:b
4F 4FF/	8aL 8f\	p	4F\	Lau-	p	8AL 8F\	Lau-	p	8f/L	Lau-	p	8a\L	Lau-	p
.	8b-J 8g\	.	.	.	.	8B-J 8G\	.	.	8g/J	.	.	8b-\J	.	.
=1	=1	=1	=1	=1	=1	=1	=1	=1	=1	=1	=1	=1	=1	=1
[2.F [2.FF/	4cc 4a\	.	[2.F\	-da-	.	4c 4A\	-da-	.	4a/	-da-	.	(4cc\	-da-	.
.	4a 4f\	.	.	.	.	4A 4F\	.	.	4f/	.	.	4a\)	.	.
.	4dd 4b-\	.	.	.	.	4d 4B-\	.	.	4b-/	.	.	4dd\	.	.
=2	=2	=2	=2	=2	=2	=2	=2	=2	=2	=2	=2	=2	=2	=2
2.F] 2.FF/]	2cc 2a\	.	2F\]	.	.	2c 2A\	.	.	2a/	.	.	2cc\	.	.
.	4a 4f\	.	4F\	-te	.	4A 4F/	-te	.	4f/	-te	.	4a\	-te	.
=3	=3	=3	=3	=3	=3	=3	=3	=3	=3	=3	=3	=3	=3	=3
[2.C [2.CC/	(4.b- 4.g\	.	2C/	Do-	.	(4.B- 4.G/	Do-	.	(4.g/	Do-	.	(4.b-\	Do-	.
.	8ccL 8e\	.	.	.	.	8c 8E/)	.	.	8e/)	.	.	8cc\)	.	.
.	8a 8f\	.	4C/	-mi-	.	8AL 8F/	-mi-	.	8f/L	-mi-	.	8a/L	-mi-	.
.	8b-J 8d\)	.	.	.	.	8B-J 8D/	.	.	8d/J	.	.	8b-/J	.	.
=4	=4	=4	=4	=4	=4	=4	=4	=4	=4	=4	=4	=4	=4	=4
2C] 2CC/]	2g 2e/	.	2C/	-num	.	2G 2E/	-num	.	2e/	-num	.	2g/	-num	.
4F 4FF\	8aL 8f\	.	4F\	Lau-	.	8AL 8F/	Lau-	.	8f/L	Lau-	.	8a/L	Lau-	.
.	8b-J 8g\	.	.	.	.	8B-J 8G/	.	.	8g/J	.	.	8b-/J	.	.
=5	=5	=5	=5	=5	=5	=5	=5	=5	=5	=5	=5	=5	=5	=5
[2.F [2.FF/	4cc 4a\	.	[2.F\	-da-	.	4c 4A\	-da-	.	4a\	-da-	.	4cc\	-da-	.
.	8ggL 8ee\	.	.	.	.	8gL 8e\	.	.	8ee\L	.	.	8gg\L	.	.
.	8ff 8dd\	.	.	.	.	8f 8d\	.	.	8dd\	.	.	8ff\	.	.
.	8ee 8cc\	.	.	.	.	8e 8c\	.	.	8cc\	.	.	8ee\	.	.
.	8ddJ 8b-\	.	.	.	.	8dJ 8B-\	.	.	8b-\J	.	.	8dd\J	.	.
=6	=6	=6	=6	=6	=6	=6	=6	=6	=6	=6	=6	=6	=6	=6
2.F] 2.FF/]	2cc 2a\	.	2F\]	.	.	2c 2A\	.	.	2a/	.	.	2cc\	.	.
.	4a 4f\	.	4F\	-te	.	4A 4F/	-te	.	4f/	-te	.	4a\	-te	.
=7	=7	=7	=7	=7	=7	=7	=7	=7	=7	=7	=7	=7	=7	=7
[2.C [2.CC/	(4.b- 4.g\	.	2C/	Do-	.	(4.B- 4.G\	Do-	.	(4.g/	Do-	.	(4.b-\	Do-	.
.	8ccL 8e\	.	.	.	.	8c 8E\)	.	.	8e/)	.	.	8cc\)	.	.
.	8a 8f\	.	4C/	-mi-	.	8AL 8F/	-mi-	.	8f/L	-mi-	.	8a/L	-mi-	.
.	8b-J 8d\)	.	.	.	.	8B-J 8D/	.	.	8d/J	.	.	8b-/J	.	.
=8	=8	=8	=8	=8	=8	=8	=8	=8	=8	=8	=8	=8	=8	=8
*	*	*	*	*	*	*^	*^	*	*	*	*	*	*	*
2.C_ 2.CC/_	2g 2e/	.	2C/	-num/	.	2G 2E/	2rCyy	.	-num	.	2e/	-num	.	2g/	-num	.
*	*	*	*	*Xij	*	*	*	*above	*	*	*	*Xij	*	*	*	*
.	4cc\	.	4C/	Lau-	.	4c/	4c\	Lau-	Lau-	.	4e/	Lau-	.	4cc\	Lau-	.
=9	=9	=9	=9	=9	=9	=9	=9	=9	=9	=9	=9	=9	=9	=9	=9	=9
!	!	!	!LO:TX:a:t=1.	!	!	!	!LO:N:n=1:vis=2	!	!	!	!	!	!	!LO:TX:a:t=1.	!	!
2.C_ 2.CC/_	4.g 4.e\	.	[2.C/	-da-	.	[2.c/	4.c 4.G\	-da-	-da-	.	(4.e/	-da-	.	[2.cc\	-da-	.
.	8a 8f\	.	.	.	.	.	8A\	.	.	.	8f/)	.	.	.	.	.
.	4b- 4g\	.	.	.	.	.	4B-\	.	-te	.	4g/	-te	.	.	.	.
=10	=10	=10	=10	=10	=10	=10	=10	=10	=10	=10	=10	=10	=10	=10	=10	=10
!	!	!	!LO:TX:a:t=2.	!	!	!	!	!	!	!	!	!	!	!LO:TX:a:t=2.	!	!
2.C_ 2.CC/_	4.a 4.f\	.	2.C/_	.	.	2.c/_	4.A\	.	Do-	.	4.f/	Do-	.	2.cc\_	.	.
.	8b- 8g\	.	.	.	.	.	8B-\	.	-mi-	.	8g/	-mi-	.	.	.	.
.	4cc 4a\	.	.	.	.	.	4c\	.	-num	.	4a/	-num	.	.	.	.
=11	=11	=11	=11	=11	=11	=11	=11	=11	=11	=11	=11	=11	=11	=11	=11	=11
!	!	!	!LO:TX:a:t=3.	!	!	!	!	!	!	!	!	!	!	!LO:TX:a:t=3.	!	!
2.C_ 2.CC/_	4.b- 4.g\	.	2.C/_	.	.	2.c/_	4.B-\	.	o-	.	(4.g/	o-	.	2.cc\_	.	.
.	8ccL 8a\	.	.	.	.	.	8c\	.	.	.	8a/)	.	.	.	.	.
.	8a 8f\	.	.	.	.	.	8A\L	.	-mnes	.	8f/L	-mnes	.	.	.	.
.	8b-J 8g\	.	.	.	.	.	8B-\J	.	.	.	8g/J	.	.	.	.	.
=12	=12	=12	=12	=12	=12	=12	=12	=12	=12	=12	=12	=12	=12	=12	=12	=12
!	!	!	!LO:TX:a:t=4.	!	!	!	!	!	!	!	!	!	!	!LO:TX:a:t=4.	!	!
2.C_ 2.CC/_	4g 4e/	.	2.C/_	.	.	2.c/_	4G\	.	gen-	.	4e/	gen-	.	2.cc\_	.	.
.	4g 4e/	.	.	.	.	.	4G\	.	-tes	.	4e/	-tes	.	.	.	.
.	4g 4e/	.	.	.	.	.	4G\	.	Lau-	.	4e/	Lau-	.	.	.	.
=13	=13	=13	=13	=13	=13	=13	=13	=13	=13	=13	=13	=13	=13	=13	=13	=13
!	!	!	!LO:TX:a:t=5.	!	!	!LO:TX:a:t=5.	!	!	!	!	!	!	!	!LO:TX:a:t=5.	!	!
2.C_ 2.CC/_	4.g 4.e\	.	2.C/_	.	.	2.c/_	(4.G\	.	-da-	.	(4.e/	-da-	.	2.cc\_	.	.
.	8a 8f\	.	.	.	.	.	8A\)	.	.	.	8f/)	.	.	.	.	.
.	4b- 4g\	.	.	.	.	.	4B-\	.	-te	.	4g/	-te	.	.	.	.
=14	=14	=14	=14	=14	=14	=14	=14	=14	=14	=14	=14	=14	=14	=14	=14	=14
!	!	!	!LO:TX:a:t=6.	!	!	!LO:TX:a:t=6.	!	!	!	!	!	!	!	!LO:TX:a:t=6.	!	!
2.C_ 2.CC/_	4.a 4.f\	.	2.C/_	.	.	2.c/_	4.A\	.	Do-	.	4.f/	Do-	.	2.cc\_	.	.
.	8b- 8g\	.	.	.	.	.	8B-\	.	-mi-	.	8g/	-mi-	.	.	.	.
.	4cc 4a\	.	.	.	.	.	4c\	.	-num	.	4a/	-num	.	.	.	.
=15	=15	=15	=15	=15	=15	=15	=15	=15	=15	=15	=15	=15	=15	=15	=15	=15
!	!	!	!LO:TX:a:t=7.	!	!	!LO:TX:a:t=7.	!	!	!	!	!	!	!	!LO:TX:a:t=7.	!	!
2.C_ 2.CC/_	4.b- 4.g\	.	2.C/_	.	.	2.c/_	4.B-\	.	o-	.	(4.g/	o-	.	2.cc\_	.	.
.	8ccL 8a\	.	.	.	.	.	8c\	.	.	.	8a/)	.	.	.	.	.
.	8a 8f\	.	.	.	.	.	8A\L	.	-mnes	.	8f/L	-mnes	.	.	.	.
.	8b-J 8g\	.	.	.	.	.	8B-\J	.	.	.	8g/J	.	.	.	.	.
=16	=16	=16	=16	=16	=16	=16	=16	=16	=16	=16	=16	=16	=16	=16	=16	=16
!	!	!	!LO:TX:a:t=8.	!	!	!LO:TX:a:t=8.	!	!	!	!	!	!	!	!LO:TX:a:t=8.	!	!
2.C] 2.CC/]	2g 2e/	.	2C/]	-te	.	2c/]	4G\	-te	gen-	.	4e/	gen-	.	2cc\]	-te	.
*	*	*	*	*	*	*	*	*below	*	*	*	*	*	*	*	*
.	.	.	.	.	.	.	4G\	.	-tes	.	4e/	-tes	.	.	.	.
!	!	!LO:DY:rj	!	!	!LO:DY:rj:b	!	!	!	!	!LO:DY:rj:b	!	!	!LO:DY:rj:b	!	!	!LO:DY:rj:b
.	8aL 8f\	f	4C/	Lau-	f	8AL 8F\	4rCyy	Lau-	.	f	8f/L	Lau-	f	8a\L	Lau-	f
.	8b-J 8g\	.	.	.	.	8B-J 8G\	.	.	.	.	8g/J	.	.	8b-\J	.	.
*	*	*	*	*	*	*	*	*v	*v	*	*	*	*	*	*	*
*	*	*	*	*	*	*v	*v	*	*	*	*	*	*	*	*
=17	=17	=17	=17	=17	=17	=17	=17	=17	=17	=17	=17	=17	=17	=17
2.F 2.FF/	2cc 2a\	.	2F\	-da-	.	2c 2A\	da-	.	2a/	-da-	.	2cc\	-da-	.
.	4cc 4a\	.	4F\	-te	.	4c 4A\	-te	.	4a/	-te	.	4cc\	-te	.
!!LO:LB:g=original
=18	=18	=18	=18	=18	=18	=18	=18	=18	=18	=18	=18	=18	=18	=18
*	*	*	*	*ij	*	*	*	*	*	*ij	*	*	*	*
2.F 2.FF/	2ff 2a\	.	2F\	e-	.	2f 2A\	e-	.	2a/	e-	.	2ff\	e-	.
.	4dd 4a\	.	4F\	-um	.	4d 4A\	-um	.	4a/	-um	.	4dd\	-um	.
=19	=19	=19	=19	=19	=19	=19	=19	=19	=19	=19	=19	=19	=19	=19
2.G 2.GG/	4.gg 4.bn\	.	2G\	o-	.	(4.g 4.Bn\	o-	.	(4.bn/	o-	.	(4.gg\	o-	.
.	8ffL 8a\	.	.	.	.	8f 8A\)	.	.	8a/)	.	.	8ff\)	.	.
.	8ee 8g\	.	4G\	-mnes	.	8eL 8G\	-mnes	.	8g/L	-mnes	.	8ee\L	-mnes	.
.	8ddJ 8f\	.	.	.	.	8dJ 8F\	.	.	8f/J	.	.	8dd\J	.	.
=20	=20	=20	=20	=20	=20	=20	=20	=20	=20	=20	=20	=20	=20	=20
2.C 2.CC/	8.dd#XL 8.f#X\	.	8.C/	po-	.	8.d#X 8.F#X\	po-	.	8.f#X/	po-	.	8.dd#X\	po-	.
.	16eeJk 16g\	.	16C/	-pu-	.	16e 16G\	-pu-	.	16g/	-pu-	.	16ee\	-pu-	.
.	4ee 4g\	.	4C/	-li	.	4e 4G\	-li	.	4g/	-li	.	4ee\	-li	.
.	4ee 4g\	.	4C/	Lau-	.	4B-X 4G\	Lau-	.	4g/	Lau-	.	4ee\	Lau-	.
=21	=21	=21	=21	=21	=21	=21	=21	=21	=21	=21	=21	=21	=21	=21
!	!	!	!	!	!	!LO:TX:t=P:problem:skreślone nuty w tt. nr 21-22	!	!	!	!	!	!	!	!
2.C#X 2.CC#X/	2.ee 2.b-X 2.g\	.	2C#X/	-da-	.	2B-X 2G\	-da-	.	2g/	-da-	.	2ee\	-da-	.
.	.	.	4C#/	-te	.	4B- 4G\	-te	.	4g/	-te	.	4ee\	-te	.
=22	=22	=22	=22	=22	=22	=22	=22	=22	=22	=22	=22	=22	=22	=22
2.D 2.DD/	4.ff 4.a 4.f\	.	2D/	e-	.	2A 2F/	e-	.	2a/	e-	.	(4.ff\	e-	.
.	8a\L	.	.	.	.	.	.	.	.	.	.	8a\)	.	.
.	8ee 8g\	.	4D/	-um	.	4A 4F/	-um	.	8g/L	-um	.	8ee\L	-um	.
.	8ddJ 8f\	.	.	.	.	.	.	.	8f/J	.	.	8dd\J	.	.
=23	=23	=23	=23	=23	=23	=23	=23	=23	=23	=23	=23	=23	=23	=23
2.G 2.GG\	(4.cc 4.e/	.	2GG/	o-	.	(4.c 4.E/	o-	.	(4.e/	o-	.	(4.cc\	o-	.
.	8ddL 8f/	.	.	.	.	8d 8F/)	.	.	8f/)	.	.	8dd\)	.	.
.	8a 8c/	.	4GG/	-mnes	.	8AL 8C/	-mnes	.	8c/L	-mnes	.	8a/L	-mnes	.
.	8bnJ 8d/)	.	.	.	.	8BnJ 8D/	.	.	8d/J	.	.	8bn/J	.	.
=24	=24	=24	=24	=24	=24	=24	=24	=24	=24	=24	=24	=24	=24	=24
8.GL 8.GG\	8.ddL 8.f\	.	8.GG/	po-	.	8.d 8.F/	po-	.	8.f/	po-	.	8.dd\	po-	.
16C\Jk	16ccJk 16e\	.	16C/	-pu-	.	16c 16E/	-pu-	.	16e/	-pu-	.	16cc\	-pu-	.
4C\	4cc 4e\	.	4C/	-li	.	4c 4E/	-li	.	4e/	-li	.	4cc\	-li	.
*	*	*	*	*Xij	*	*	*	*	*	*Xij	*	*	*	*
4r	4r	.	4r	.	.	4r	.	.	4r	.	.	4r	.	.
=25	=25	=25	=25	=25	=25	=25	=25	=25	=25	=25	=25	=25	=25	=25
*	*tremolo	*	*	*	*	*	*	*	*	*	*	*	*	*
!	!	!LO:DY:rj	!	!	!LO:DY:rj:b	!	!	!	!	!	!	!	!	!
2.C 2.CC/	(8eL 8c/	p	4.c\	Quo-	f	2.r	.	.	2.r	.	.	2.r	.	.
.	8G/	.	.	.	.	.	.	.	.	.	.	.	.	.
.	8e 8c/	.	.	.	.	.	.	.	.	.	.	.	.	.
.	8G/	.	8C/	-ni-	.	.	.	.	.	.	.	.	.	.
.	8e 8c/	.	4C/	-am	.	.	.	.	.	.	.	.	.	.
.	8G/J)	.	.	.	.	.	.	.	.	.	.	.	.	.
=26	=26	=26	=26	=26	=26	=26	=26	=26	=26	=26	=26	=26	=26	=26
2.C#X 2.CC#X/	(8gL 8e/	.	(4.A\	con-	.	2.r	.	.	2.r	.	.	2.r	.	.
.	8A/	.	.	.	.	.	.	.	.	.	.	.	.	.
.	8g 8e/	.	.	.	.	.	.	.	.	.	.	.	.	.
.	8A/	.	8G\)	.	.	.	.	.	.	.	.	.	.	.
.	8g 8e/	.	8F\L	-fir-	.	.	.	.	.	.	.	.	.	.
.	8A/J)	.	8E\J	.	.	.	.	.	.	.	.	.	.	.
=27	=27	=27	=27	=27	=27	=27	=27	=27	=27	=27	=27	=27	=27	=27
[<2.D 2.DD/	(8fL 8d/	.	(4.F\	-ma-	.	2.r	.	.	2.r	.	.	2.r	.	.
.	8A/	.	.	.	.	.	.	.	.	.	.	.	.	.
.	8f 8d/	.	.	.	.	.	.	.	.	.	.	.	.	.
.	8A/	.	8G\L	.	.	.	.	.	.	.	.	.	.	.
.	8f 8d/	.	8A\	.	.	.	.	.	.	.	.	.	.	.
.	8A/J)	.	8F\J)	.	.	.	.	.	.	.	.	.	.	.
=28	=28	=28	=28	=28	=28	=28	=28	=28	=28	=28	=28	=28	=28	=28
*	*rep	*	*	*	*	*	*	*	*	*	*	*	*	*
2D/]	(8fL 8d/	.	4D\	-ta	.	2.r	.	.	2.r	.	.	2.r	.	.
.	8A/	.	.	.	.	.	.	.	.	.	.	.	.	.
.	8f 8d/	.	4r	.	.	.	.	.	.	.	.	.	.	.
.	8A/	.	.	.	.	.	.	.	.	.	.	.	.	.
4C/	8f 8d/	.	4C/	est	.	.	.	.	.	.	.	.	.	.
.	8A/J)	.	.	.	.	.	.	.	.	.	.	.	.	.
*	*Xrep	*	*	*	*	*	*	*	*	*	*	*	*	*
=29	=29	=29	=29	=29	=29	=29	=29	=29	=29	=29	=29	=29	=29	=29
[2.BBn/	(8fL 8d/	.	(4.BBn/	su-	.	2.r	.	.	2.r	.	.	2.r	.	.
.	8G/	.	.	.	.	.	.	.	.	.	.	.	.	.
.	8f 8d/	.	.	.	.	.	.	.	.	.	.	.	.	.
.	8G/	.	8d\)	.	.	.	.	.	.	.	.	.	.	.
.	8f 8d/	.	4d\	-per	.	.	.	.	.	.	.	.	.	.
.	8G/J)	.	.	.	.	.	.	.	.	.	.	.	.	.
=30	=30	=30	=30	=30	=30	=30	=30	=30	=30	=30	=30	=30	=30	=30
*	*rep	*	*	*	*	*	*	*	*	*	*	*	*	*
2.BB/]	(8fL 8d/	.	8d\L	nos	.	2.r	.	.	2.r	.	.	2.r	.	.
.	8G/	.	8c\	.	.	.	.	.	.	.	.	.	.	.
.	8f 8d/	.	8Bn\J	.	.	.	.	.	.	.	.	.	.	.
.	8G/	.	8A\	mi-	.	.	.	.	.	.	.	.	.	.
.	8f 8d/	.	8G\	-se-	.	.	.	.	.	.	.	.	.	.
.	8G/J)	.	8F\	-ri-	.	.	.	.	.	.	.	.	.	.
*	*Xrep	*	*	*	*	*	*	*	*	*	*	*	*	*
=31	=31	=31	=31	=31	=31	=31	=31	=31	=31	=31	=31	=31	=31	=31
[2.C/	(8eL 8c/	.	8E\L	-cor-	.	2.r	.	.	2.r	.	.	2.r	.	.
.	8G/	.	8G\	.	.	.	.	.	.	.	.	.	.	.
.	8e 8c/	.	8c\J	.	.	.	.	.	.	.	.	.	.	.
.	8G/	.	8G\	-di-	.	.	.	.	.	.	.	.	.	.
.	8e 8c/	.	8E\L	-a	.	.	.	.	.	.	.	.	.	.
.	8G/J)	.	8G\J	.	.	.	.	.	.	.	.	.	.	.
=32	=32	=32	=32	=32	=32	=32	=32	=32	=32	=32	=32	=32	=32	=32
*	*rep	*	*	*	*	*	*	*	*	*	*	*	*	*
2.C/]	(8eL 8c/	.	4C/	e-	.	2.r	.	.	2.r	.	.	2.r	.	.
.	8G/	.	.	.	.	.	.	.	.	.	.	.	.	.
.	8e 8c/	.	4C/	-jus	.	.	.	.	.	.	.	.	.	.
.	8G/	.	.	.	.	.	.	.	.	.	.	.	.	.
.	8e 8c/	.	4C/	et	.	.	.	.	.	.	.	.	.	.
.	8G/J)	.	.	.	.	.	.	.	.	.	.	.	.	.
*	*Xrep	*	*	*	*	*	*	*	*	*	*	*	*	*
=33	=33	=33	=33	=33	=33	=33	=33	=33	=33	=33	=33	=33	=33	=33
*	*rep	*	*	*	*	*	*	*	*	*	*	*	*	*
2.BB-X/	(8eL 8c/	.	[4BB-X/	ve-	.	2.r	.	.	2.r	.	.	2.r	.	.
.	8G/	.	.	.	.	.	.	.	.	.	.	.	.	.
.	8e 8c/	.	16BB-/LL]	.	.	.	.	.	.	.	.	.	.	.
.	.	.	16C/	.	.	.	.	.	.	.	.	.	.	.
.	8G/	.	16D/	.	.	.	.	.	.	.	.	.	.	.
.	.	.	16E/JJ	.	.	.	.	.	.	.	.	.	.	.
.	8e 8c/	.	16F\LL	.	.	.	.	.	.	.	.	.	.	.
.	.	.	16G\	.	.	.	.	.	.	.	.	.	.	.
.	8G/J)	.	16A\	.	.	.	.	.	.	.	.	.	.	.
.	.	.	16B-\JJ	.	.	.	.	.	.	.	.	.	.	.
*	*Xrep	*	*	*	*	*	*	*	*	*	*	*	*	*
=34	=34	=34	=34	=34	=34	=34	=34	=34	=34	=34	=34	=34	=34	=34
2.AA/	(8fL 8c/	.	4.c\	.	.	2.r	.	.	2.r	.	.	2.r	.	.
.	8A/	.	.	.	.	.	.	.	.	.	.	.	.	.
.	8f 8c/	.	.	.	.	.	.	.	.	.	.	.	.	.
.	8A/	.	8A\	-ri-	.	.	.	.	.	.	.	.	.	.
.	8f 8c/	.	4F\	-tas	.	.	.	.	.	.	.	.	.	.
.	8A/J)	.	.	.	.	.	.	.	.	.	.	.	.	.
!!LO:PB:g=original
=35	=35	=35	=35	=35	=35	=35	=35	=35	=35	=35	=35	=35	=35	=35
2.GG/	(8gL 8e/	.	2B-\	Do-	.	2.r	.	.	2.r	.	.	2.r	.	.
.	8c/	.	.	.	.	.	.	.	.	.	.	.	.	.
.	8g 8e/	.	.	.	.	.	.	.	.	.	.	.	.	.
.	8c/	.	.	.	.	.	.	.	.	.	.	.	.	.
.	8g 8e/	.	8c\L	-mi-	.	.	.	.	.	.	.	.	.	.
.	8c/J)	.	8B-\J	.	.	.	.	.	.	.	.	.	.	.
=36	=36	=36	=36	=36	=36	=36	=36	=36	=36	=36	=36	=36	=36	=36
2.FF/	(8aL 8f/	.	2A\	-ni	.	2.r	.	.	2.r	.	.	2.r	.	.
.	8c/	.	.	.	.	.	.	.	.	.	.	.	.	.
.	8a 8f/	.	.	.	.	.	.	.	.	.	.	.	.	.
.	8c/	.	.	.	.	.	.	.	.	.	.	.	.	.
.	8a 8f/	.	4r	.	.	.	.	.	.	.	.	.	.	.
.	8c/J)	.	.	.	.	.	.	.	.	.	.	.	.	.
=37	=37	=37	=37	=37	=37	=37	=37	=37	=37	=37	=37	=37	=37	=37
2.EE/	(8gL 8c#X/	.	(2A\	ma-	.	2.r	.	.	2.r	.	.	2.r	.	.
.	8A/	.	.	.	.	.	.	.	.	.	.	.	.	.
.	8g 8c#/	.	.	.	.	.	.	.	.	.	.	.	.	.
.	8A/	.	.	.	.	.	.	.	.	.	.	.	.	.
.	8g 8c#/	.	8Bn\L	.	.	.	.	.	.	.	.	.	.	.
.	8A/J)	.	8c#X\J	.	.	.	.	.	.	.	.	.	.	.
*	*Xtremolo	*	*	*	*	*	*	*	*	*	*	*	*	*
=38	=38	=38	=38	=38	=38	=38	=38	=38	=38	=38	=38	=38	=38	=38
4DD/	8fL 8d/	.	4d\)	.	.	2.r	.	.	2.r	.	.	2.r	.	.
.	8A/J	.	.	.	.	.	.	.	.	.	.	.	.	.
*	*tremolo	*	*	*	*	*	*	*	*	*	*	*	*	*
2BBn/	(8fL 8d/	.	4BBn/	-net	.	.	.	.	.	.	.	.	.	.
.	8G/	.	.	.	.	.	.	.	.	.	.	.	.	.
.	8f 8d/	.	8BB/	in	.	.	.	.	.	.	.	.	.	.
.	8G/J)	.	8BB/	ae-	.	.	.	.	.	.	.	.	.	.
*	*Xtremolo	*	*	*	*	*	*	*	*	*	*	*	*	*
=39	=39	=39	=39	=39	=39	=39	=39	=39	=39	=39	=39	=39	=39	=39
[2.C [2.CC/	(8e/L	.	2.C/	-ter-	.	2.r	.	.	2.r	.	.	2.r	.	.
.	8c/	.	.	.	.	.	.	.	.	.	.	.	.	.
.	8g/	.	.	.	.	.	.	.	.	.	.	.	.	.
.	8e/	.	.	.	.	.	.	.	.	.	.	.	.	.
.	8c/	.	.	.	.	.	.	.	.	.	.	.	.	.
.	8G/J)	.	.	.	.	.	.	.	.	.	.	.	.	.
=40	=40	=40	=40	=40	=40	=40	=40	=40	=40	=40	=40	=40	=40	=40
*	*rep	*	*	*	*	*	*	*	*	*	*	*	*	*
2.C_ 2.CC/_	(8e/L	.	4C/	-num	.	2.r	.	.	2.r	.	.	2.r	.	.
.	8c/	.	.	.	.	.	.	.	.	.	.	.	.	.
.	8g/	.	4r	.	.	.	.	.	.	.	.	.	.	.
.	8e/	.	.	.	.	.	.	.	.	.	.	.	.	.
.	8c/	.	8c\	in	.	.	.	.	.	.	.	.	.	.
.	8G/J)	.	8c\	ae-	.	.	.	.	.	.	.	.	.	.
*	*Xrep	*	*	*	*	*	*	*	*	*	*	*	*	*
=41	=41	=41	=41	=41	=41	=41	=41	=41	=41	=41	=41	=41	=41	=41
*	*rep	*	*	*	*	*	*	*	*	*	*	*	*	*
2.C_ 2.CC/_	(8e/L	.	2.B-X\	-ter-	.	2.r	.	.	2.r	.	.	2.r	.	.
.	8c/	.	.	.	.	.	.	.	.	.	.	.	.	.
.	8g/	.	.	.	.	.	.	.	.	.	.	.	.	.
.	8e/	.	.	.	.	.	.	.	.	.	.	.	.	.
.	8c/	.	.	.	.	.	.	.	.	.	.	.	.	.
.	8G/J)	.	.	.	.	.	.	.	.	.	.	.	.	.
*	*Xrep	*	*	*	*	*	*	*	*	*	*	*	*	*
=42	=42	=42	=42	=42	=42	=42	=42	=42	=42	=42	=42	=42	=42	=42
2.C_ 2.CC/_	(8f/L	.	4A\	-num	.	2.r	.	.	2.r	.	.	2.r	.	.
.	8c/	.	.	.	.	.	.	.	.	.	.	.	.	.
.	8a/	.	4r	.	.	.	.	.	.	.	.	.	.	.
.	8f/	.	.	.	.	.	.	.	.	.	.	.	.	.
.	8c/	.	8A\	in	.	.	.	.	.	.	.	.	.	.
.	8A/J)	.	8A\	ae-	.	.	.	.	.	.	.	.	.	.
=43	=43	=43	=43	=43	=43	=43	=43	=43	=43	=43	=43	=43	=43	=43
2.C_ 2.CC/_	(8f/L	.	(4.A-X\	-ter-	.	2.r	.	.	2.r	.	.	2.r	.	.
.	8d/	.	.	.	.	.	.	.	.	.	.	.	.	.
.	8a-X/	.	.	.	.	.	.	.	.	.	.	.	.	.
.	8f/	.	8G\L	.	.	.	.	.	.	.	.	.	.	.
.	8d/	.	8E\	.	.	.	.	.	.	.	.	.	.	.
.	8Bn/J)	.	8G\J)	.	.	.	.	.	.	.	.	.	.	.
=44	=44	=44	=44	=44	=44	=44	=44	=44	=44	=44	=44	=44	=44	=44
4C] 4CC/]	4g 4e 4c/	.	4C/	-num	.	4r	.	.	4r	.	.	4r	.	.
!	!	!	!	!	!	!	!	!LO:DY:rj:b	!	!	!LO:DY:b	!	!	!LO:DY:rj:b
4r	4r	.	4r	.	.	4r	.	p	4r	.	p	4r	.	p
*	*	*	*	*ij	*	*	*	*	*	*ij	*	*	*	*
!	!	!LO:DY:rj	!	!	!LO:DY:rj:b	!	!	!	!	!	!	!	!	!
4F 4FF/	8aL 8f\	p	4F\	Lau-	p	8AL 8F\	Lau-	.	8f/L	Lau-	.	8a/L	Lau-	.
.	8b-J 8g\	.	.	.	.	8B-J 8G\	.	.	8g/J	.	.	8b-/J	.	.
=45	=45	=45	=45	=45	=45	=45	=45	=45	=45	=45	=45	=45	=45	=45
[2.F [2.FF/	4cc 4a\	.	[2.F\	-da-	.	4c 4A\	-da-	.	4a/	-da-	.	4cc\	-da-	.
.	4a 4f\	.	.	.	.	4A 4F\	.	.	4f/	.	.	4a\	.	.
.	4dd 4b-\	.	.	.	.	4d 4B-\	.	.	4b-/	.	.	4dd\	.	.
=46	=46	=46	=46	=46	=46	=46	=46	=46	=46	=46	=46	=46	=46	=46
2.F] 2.FF/]	2cc 2a\	.	2F\]	.	.	2c 2A\	.	.	2a/	.	.	2cc\	.	.
.	4a 4f\	.	4F\	-te	.	4A 4F/	-te	.	4f/	-te	.	4a\	-te	.
=47	=47	=47	=47	=47	=47	=47	=47	=47	=47	=47	=47	=47	=47	=47
[2.C [2.CC/	(4.b- 4.g\	.	2C/	Do-	.	4.B- 4.G\	Do-	.	(4.g/	Do-	.	(4.b-\	Do-	.
.	8ccL 8e\	.	.	.	.	8c 8E\	.	.	8e/)	.	.	8cc\)	.	.
.	8a 8f\	.	4C/	-mi-	.	8AL 8F/	-mi-	.	8f/L	-mi-	.	8a\L	-mi-	.
.	8b-J 8d\)	.	.	.	.	8B-J 8D/	.	.	8d/J	.	.	8b-\J	.	.
=48	=48	=48	=48	=48	=48	=48	=48	=48	=48	=48	=48	=48	=48	=48
2C] 2CC/]	2g 2e/	.	2C/	-num	.	2G 2E/	-num	.	2e/	-num	.	2g/	-num	.
4F 4FF\	8aL 8f\	.	4F\	Lau-	.	8AL 8F\	Lau-	.	8f/L	Lau-	.	8a\L	Lau-	.
.	8b-J 8g\	.	.	.	.	8B-J 8G\	.	.	8g/J	.	.	8b-\J	.	.
=49	=49	=49	=49	=49	=49	=49	=49	=49	=49	=49	=49	=49	=49	=49
[2.F [2.FF/	4cc 4a\	.	[2.F\	-da-	.	4c 4A\	-da-	.	4a\	-da-	.	4cc\	-da-	.
.	8ggL 8ee\	.	.	.	.	8gL 8e\	.	.	8ee\L	.	.	8gg\L	.	.
.	8ff 8dd\	.	.	.	.	8f 8d\	.	.	8dd\	.	.	8ff\	.	.
.	8ee 8cc\	.	.	.	.	8e 8c\	.	.	8cc\	.	.	8ee\	.	.
.	8ddJ 8b-\	.	.	.	.	8dJ 8B-\	.	.	8b-\J	.	.	8dd\J	.	.
=50	=50	=50	=50	=50	=50	=50	=50	=50	=50	=50	=50	=50	=50	=50
2.F] 2.FF/]	2cc 2a\	.	2F\]	.	.	2c 2A\	.	.	2a/	.	.	2cc\	.	.
.	4a 4f\	.	4F\	-te	.	4A 4F\	-te	.	4f/	-te	.	4a\	-te	.
=51	=51	=51	=51	=51	=51	=51	=51	=51	=51	=51	=51	=51	=51	=51
[2.C [2.CC/	(4.b- 4.g\	.	2C/	Do-	.	(4.B- 4.G\	Do-	.	(4.g/	Do-	.	(4.b-\	Do-	.
.	8ccL 8e\	.	.	.	.	8c 8E\)	.	.	8e/)	.	.	8cc\)	.	.
.	8a 8f\	.	4C/	-mi-	.	8AL 8F/	-mi-	.	8f/L	-mi-	.	8a/L	-mi-	.
.	8b-J 8d\)	.	.	.	.	8B-J 8D/	.	.	8d/J	.	.	8b-/J	.	.
=52	=52	=52	=52	=52	=52	=52	=52	=52	=52	=52	=52	=52	=52	=52
*	*	*	*	*	*	*^	*^	*	*	*	*	*	*	*
2.C_ 2.CC/_	2g 2e/	.	2C/	-num	.	2G 2E/	2rCyy	.	-num	.	2e/	-num	.	2g/	-num	.
*	*	*	*	*Xij	*	*	*	*above	*	*	*	*Xij	*	*	*	*
!	!	!	!	!	!	!	!LO:TX:b:t=P:problem:skreślone nuty w tt. nr 52-53	!	!	!	!	!	!	!	!	!
.	4cc\	.	4C/	Lau-	.	4c/	[4G\	Lau-	Lau-	.	4e/	Lau-	.	4cc\	Lau-	.
=53	=53	=53	=53	=53	=53	=53	=53	=53	=53	=53	=53	=53	=53	=53	=53	=53
!	!	!	!LO:TX:a:t=1.	!	!	!	!	!	!	!	!	!	!	!LO:TX:a:t=1.	!	!
2.C_ 2.CC/_	4.g 4.e\	.	[2.C/	-da-	.	[2.c/	4.G\]	-da-	-da-	.	(4.e/	-da-	.	[2.cc\	-da-	.
.	8a 8f\	.	.	.	.	.	8A\	.	.	.	8f/)	.	.	.	.	.
.	4b- 4g\	.	.	.	.	.	4B-\	.	-te	.	4g/	-te	.	.	.	.
!!LO:LB:g=original
=54	=54	=54	=54	=54	=54	=54	=54	=54	=54	=54	=54	=54	=54	=54	=54	=54
!	!	!	!LO:TX:a:t=2	!	!	!LO:TX:a:t=2	!	!	!	!	!	!	!	!LO:TX:a:t=2.	!	!
2.C_ 2.CC/_	4.a 4.f\	.	2.C/_	.	.	2.c/_	4.A\	.	Do-	.	4.f/	Do-	.	2.cc\_	.	.
.	8b- 8g\	.	.	.	.	.	8B-\	.	-mi-	.	8g/	-mi-	.	.	.	.
.	4cc 4a\	.	.	.	.	.	4c\	.	-num	.	4a/	-num	.	.	.	.
=55	=55	=55	=55	=55	=55	=55	=55	=55	=55	=55	=55	=55	=55	=55	=55	=55
!	!	!	!LO:TX:a:t=3	!	!	!LO:TX:a:t=3	!	!	!	!	!	!	!	!LO:TX:a:t=3.	!	!
2.C_ 2.CC/_	4.b- 4.g\	.	2.C/_	.	.	2.c/_	4.B-\	.	o-	.	(4.g/	o-	.	2.cc\_	.	.
.	8ccL 8a\	.	.	.	.	.	8c\	.	.	.	8a/)	.	.	.	.	.
.	8a 8f\	.	.	.	.	.	8A\L	.	-mnes	.	8f/L	-mnes	.	.	.	.
.	8b-J 8g\	.	.	.	.	.	8B-\J	.	.	.	8g/J	.	.	.	.	.
=56	=56	=56	=56	=56	=56	=56	=56	=56	=56	=56	=56	=56	=56	=56	=56	=56
!	!	!	!LO:TX:a:t=4	!	!	!LO:TX:a:t=4	!	!	!	!	!	!	!	!LO:TX:a:t=4.	!	!
2.C_ 2.CC/_	[2.g [2.e/	.	2.C/_	.	.	2.c/_	4G\	.	gen-	.	4e/	gen-	.	2.cc\_	.	.
.	.	.	.	.	.	.	4G\	.	-tes	.	4e/	-tes	.	.	.	.
.	.	.	.	.	.	.	4G\	.	Lau-	.	4e/	Lau-	.	.	.	.
=57	=57	=57	=57	=57	=57	=57	=57	=57	=57	=57	=57	=57	=57	=57	=57	=57
!	!	!	!LO:TX:a:t=5	!	!	!LO:TX:a:t=5	!	!	!	!	!	!	!	!LO:TX:a:t=5.	!	!
2.C_ 2.CC/_	4.g] 4.e\]	.	2.C/_	.	.	2.c/_	4.G\	.	-da-	.	(4.e/	-da-	.	2.cc\_	.	.
.	8a 8f\	.	.	.	.	.	8A\	.	.	.	8f/)	.	.	.	.	.
.	4b- 4g\	.	.	.	.	.	4B-\	.	-te	.	4g/	-te	.	.	.	.
=58	=58	=58	=58	=58	=58	=58	=58	=58	=58	=58	=58	=58	=58	=58	=58	=58
!	!	!	!LO:TX:a:t=6	!	!	!LO:TX:a:t=6	!	!	!	!	!	!	!	!LO:TX:a:t=6.	!	!
2.C_ 2.CC/_	4.a 4.f\	.	2.C/_	.	.	2.c/_	4.A\	.	Do-	.	4.f/	Do-	.	2.cc\_	.	.
.	8b- 8g\	.	.	.	.	.	8B-\	.	-mi-	.	8g/	-mi-	.	.	.	.
.	4cc 4a\	.	.	.	.	.	4c\	.	-num	.	4a/	-num	.	.	.	.
=59	=59	=59	=59	=59	=59	=59	=59	=59	=59	=59	=59	=59	=59	=59	=59	=59
!	!	!	!LO:TX:a:t=7	!	!	!LO:TX:a:t=7	!	!	!	!	!	!	!	!LO:TX:a:t=7.	!	!
2.C_ 2.CC/_	4.b- 4.g\	.	2.C/_	.	.	2.c/_	4.B-\	.	o-	.	(4.g/	o-	.	2.cc\_	.	.
.	8ccL 8a\	.	.	.	.	.	8c\	.	.	.	8a/)	.	.	.	.	.
.	8a 8f\	.	.	.	.	.	8A\L	.	-mnes	.	8f/L	-mnes	.	.	.	.
.	8b-J 8g\	.	.	.	.	.	8B-\J	.	.	.	8g/J	.	.	.	.	.
=60	=60	=60	=60	=60	=60	=60	=60	=60	=60	=60	=60	=60	=60	=60	=60	=60
!	!	!	!LO:TX:a:t=8	!	!	!LO:TX:a:t=8	!	!	!	!	!	!	!	!LO:TX:a:t=8.	!	!
2C] 2CC/]	2g 2e/	.	2C/]	-te	.	2c/]	4G\	-te	-gen-	.	4e/	gen-	.	2cc\]	-te	.
.	.	.	.	.	.	.	4G\	.	-tes	.	4e/	-tes	.	.	.	.
*	*	*	*	*ij	*	*	*	*below	*	*	*	*ij	*	*	*	*
4F 4FF\	8aL 8f\	.	4F\	Lau-	.	8AL 8F\	4rCyy	Lau-	.	.	8f/L	Lau-	.	8a\L	Lau-	.
.	8b-J 8g\	.	.	.	.	8B-J 8G\	.	.	.	.	8g/J	.	.	8b-\J	.	.
*	*	*	*	*	*	*	*	*v	*v	*	*	*	*	*	*	*
*	*	*	*	*	*	*v	*v	*	*	*	*	*	*	*	*
=61	=61	=61	=61	=61	=61	=61	=61	=61	=61	=61	=61	=61	=61	=61
[2.F [2.FF/	4cc 4a\	.	2F\	-da-	.	(4c 4A\	da-	.	(4a/	-da-	.	(4cc\	-da-	.
.	4a 4f\	.	.	.	.	4A 4F\)	.	.	4f/)	.	.	4a\)	.	.
.	4dd 4b-\	.	4F\	-te	.	4d 4B-\	-te	.	4b-\	-te	.	4dd\	-te	.
=62	=62	=62	=62	=62	=62	=62	=62	=62	=62	=62	=62	=62	=62	=62
2.F] 2.FF/]	2cc 2a\	.	2F\	e-	.	2c 2A\	e-	.	2a/	e-	.	2cc\	e-	.
.	4a 4f\	.	4F\	-um	.	4A 4F\	-um	.	4f/	-um	.	4a\	-um	.
=63	=63	=63	=63	=63	=63	=63	=63	=63	=63	=63	=63	=63	=63	=63
[2.C [2.CC/	(4.b- 4.g\	.	2C/	o-	.	(4.B- 4.G\	o-	.	(4.g/	o-	.	(4.b-\	o-	.
.	8ccL 8e\	.	.	.	.	8c 8E\)	.	.	8e/)	.	.	8cc\)	.	.
.	8a 8f\	.	4C/	-mnes	.	8AL 8F\	-mnes	.	8f/L	-mnes	.	8a/L	-mnes	.
.	8b-J 8d\)	.	.	.	.	8B-J 8D\	.	.	8d/J	.	.	8b-/J	.	.
=64	=64	=64	=64	=64	=64	=64	=64	=64	=64	=64	=64	=64	=64	=64
2C] 2CC/]	2g 2e/	.	8.C/	po-	.	8.G 8.E/	po-	.	8.e/	po-	.	8.g/	po-	.
.	.	.	16C/	-pu-	.	16G 16E/	-pu-	.	16e/	-pu-	.	16g/	-pu-	.
.	.	.	4C/	-li	.	4G 4E/	-li	.	4e/	-li	.	4g/	-li	.
!	!	!LO:DY:rj	!	!	!LO:DY:rj:b	!	!	!LO:DY:rj:b	!	!	!LO:DY:rj:b	!	!	!LO:DY:rj:b
4F 4FF\	8aL 8f\	f	4F\	Lau-	f	8AL 8F\	Lau-	f	8f/L	Lau-	f	8a/L	Lau-	f
.	8b-J 8g\	.	.	.	.	8B-J 8G\	.	.	8g/J	.	.	8b-/J	.	.
=65	=65	=65	=65	=65	=65	=65	=65	=65	=65	=65	=65	=65	=65	=65
2.F 2.FF/	2cc 2a\	.	2F\	-da-	.	2c 2A\	-da-	.	2a/	-da-	.	2cc\	-da-	.
.	4a 4f\	.	4F\	-te	.	4A 4F\	-te	.	4f/	-te	.	4a\	-te	.
=66	=66	=66	=66	=66	=66	=66	=66	=66	=66	=66	=66	=66	=66	=66
2.BB-/	(8ggL 8ee\	.	2BB-/	e-	.	8gL 8e\	e-	.	8ee\L	e-	.	8gg\L	e-	.
.	8ff 8dd\	.	.	.	.	8f 8d\	.	.	8dd\	.	.	8ff\	.	.
.	8ee 8cc#X\	.	.	.	.	8e 8c#X\	.	.	8cc#X\	.	.	8ee\	.	.
.	8ff 8dd\	.	.	.	.	8fJ 8d\	.	.	8dd\J	.	.	8ff\J	.	.
.	8dd 8b-\	.	4BB-/	-um	.	8dL 8B-\	-um	.	8b-\L	-um	.	8dd\L	-um	.
.	8b-J 8g\)	.	.	.	.	8B-J 8G\	.	.	8g\J	.	.	8b-\J	.	.
=67	=67	=67	=67	=67	=67	=67	=67	=67	=67	=67	=67	=67	=67	=67
2.C/	2.a 2.f/	.	2C/	om-	.	2A 2F/	om-	.	2f/	om-	.	2a/	om-	.
.	.	.	4C/	-nes	.	4A 4F/	-nes	.	4f/	-nes	.	4a/	-nes	.
=68	=68	=68	=68	=68	=68	=68	=68	=68	=68	=68	=68	=68	=68	=68
[2.C [2.CC/	[2.b- [>2.g [2.e/	.	[2.C/	po-	.	[2.G [2.E/	po-	.	[2.g/	po-	.	[2.b-/	po-	.
=69	=69	=69	=69	=69	=69	=69	=69	=69	=69	=69	=69	=69	=69	=69
2.C] 2.CC/]	2b-] 2g] 2e/]	.	2C/]	.	.	2G] 2E/]	.	.	2g/]	.	.	2b-/]	.	.
.	4g 4e 4B-/	.	4C/	-pu-	.	4B- 4G/	-pu-	.	4e/	-pu-	.	4g/	-pu-	.
=70	=70	=70	=70	=70	=70	=70	=70	=70	=70	=70	=70	=70	=70	=70
*	*	*	*	*	*	*^	*	*	*	*	*	*	*	*
2F 2FF;\	2f 2A;/	.	2F;\	-li	.	2A;/	2A\	-li	.	2f;/	-li	.	2f;/	-li	.
*	*	*	*	*Xij	*	*	*	*	*	*	*Xij	*	*	*	*
4r	4r	.	4r	.	.	4ra	4rCyy	.	.	4r	.	.	4r	.	.
*	*	*	*	*	*	*v	*v	*	*	*	*	*	*	*	*
==	==	==	==	==	==	==	==	==	==	==	==	==	==	==
*-	*-	*-	*-	*-	*-	*-	*-	*-	*-	*-	*-	*-	*-	*-
!!!system-decoration: (s1,s2,s3,s4,s5,s6)
!!!RDF**kern: > = above
!!!RDF**kern: < = below
!!!ENC: Mateusz Solarz
!!!END: 2021-05-24
!!!ENC: Andrzej Kubiczek
!!!END: 2021-06-08
